X:2509
T:Hawk,The. JMT054
O:england
M:4/4
L:1/8
C:James Hill
S:J.Moore,Tyneside,1841.(40)
R:Hornpipe
N:It says in brackets alongside the title "A Hornpipe By James Hill
K:E
(B/c/d)|e2ge c-egf|e-gfa g-bag|f2af d-fag|f-edc B-cdB|
e2ge c-egf|e-gfa g-bag|f-efg|b-Bcd|e-Bgfe2:|
|:GA|B-age B-agd|B-agf e-dcB|c-Bdc e-dge|g-eagg2fg|
g-b.g.a f-gef|d-bca B-gAf|d-efg b-Bcd|e-cgfe2:|]


